src/static/logos/horizon.svg

<svg width="256" height="256" xmlns="http://www.w3.org/2000/svg" xmlns:xlink="http://www.w3.org/1999/xlink" preserveAspectRatio="xMidYMid"><defs><linearGradient x1="50%" y1="0%" x2="50%" y2="100%" id="a"><stop stop-color="#E7507E" offset="0%"/><stop stop-color="#FBB583" offset="100%"/></linearGradient><path d="M215.923 163.987c-16.153 3.476-82.471 5.452-82.675 12.745.204 8.52 40.008 8.792 39.327 18.062-1.26 16.906-63.717 26.911-124.144 33.467C70.278 245.623 97.925 256 128 256c66.386 0 120.962-50.541 127.365-115.243-10.915 10.833-21.176 19.141-39.442 23.23z" id="b"/></defs><path d="M0 128l.002.136 1.997 1.333H79.5l2.299-1.333c.221-26.01 21.366-47.028 47.428-47.028 26.062 0 47.206 21.018 47.427 47.028l3.013 1.5h74.665l1.666-1.5L256 128C256 57.307 198.692 0 128 0 57.308 0 0 57.307 0 128z" fill="url(#a)"/><path d="M.002 128.136C.076 198.766 57.353 256 128 256s127.924-57.234 127.998-127.864H.002z" fill="#62B3C5"/><use fill="#A8DCE3" xlink:href="#b"/></svg>

<?xml version="1.0" encoding="UTF-8" standalone="no"?>
<svg width="256px" height="256px" viewBox="0 0 256 256" version="1.1" xmlns="http://www.w3.org/2000/svg" xmlns:xlink="http://www.w3.org/1999/xlink" preserveAspectRatio="xMidYMid">
    <defs>
        <linearGradient x1="50%" y1="0%" x2="50%" y2="100%" id="linearGradient-1">
            <stop stop-color="#E7507E" offset="0%"></stop>
            <stop stop-color="#FBB583" offset="100%"></stop>
        </linearGradient>
        <path d="M215.923,163.987 C199.77,167.463 133.452,169.439 133.248,176.732 C133.452,185.252 173.256,185.524 172.575,194.794 C171.315,211.7 108.858,221.705 48.431,228.261 C70.278,245.623 97.925,256 128,256 C194.386,256 248.962,205.459 255.365,140.757 C244.45,151.59 234.189,159.898 215.923,163.987 L215.923,163.987 Z" id="path-2"></path>
    </defs>
	<g>
		<path d="M0,128 C0,128.046 0.002,128.091 0.002,128.136 L1.999,129.469 L79.5,129.469 L81.799,128.136 C82.02,102.126 103.165,81.108 129.227,81.108 C155.289,81.108 176.433,102.126 176.654,128.136 L179.667,129.636 L254.332,129.636 L255.998,128.136 C255.998,128.091 256,128.046 256,128 C256,57.307 198.692,0 128,0 C57.308,0 0,57.307 0,128 L0,128 Z" fill="url(#linearGradient-1)"></path>
		<path d="M0.002,128.136 C0.076,198.766 57.353,256 128,256 C198.647,256 255.924,198.766 255.998,128.136 L0.002,128.136 L0.002,128.136 Z" fill="#62B3C5"></path>
		<mask id="mask-3" fill="white">
			<use xlink:href="#path-2"></use>
		</mask>
		<use fill="#A8DCE3" xlink:href="#path-2"></use>
	</g>
</svg>
